ligands/monodentate/tetrahydrofurane.svg

<svg height="256" viewBox="0 0 256 256" width="256" xmlns="http://www.w3.org/2000/svg"><path d="m0 0h256v256h-256z" fill="#fff"/><ellipse cx="37.9" cy="186.4" fill="#ff7f7f" fill-rule="evenodd" rx="25.1" ry="25.1" stroke="#ff7f7f"/><g fill="none" stroke="#000" stroke-width="2"><path d="m125.1 151.2 61.7 27.5"/><path d="m186.8 178.7 56-62.1"/><path d="m242.8 116.6-41.7-72.5"/><path d="m201.1 44.1-81.9 17.3"/><path d="m119.2 61.4-7.2 68.5"/><path d="m95.6 153.1-42.9 24.8"/><path d="m183.7 177.3 3.1 1.4 2.8-3.1" stroke-miterlimit="10"/><path d="m240 119.7 2.8-3.1-2.1-3.6" stroke-miterlimit="10"/><path d="m203.1 47.8-2-3.7-4.1.9" stroke-miterlimit="10"/><path d="m123.3 60.6-4.1.8-.3 3.5" stroke-miterlimit="10"/></g><text x="25.9" y="206.4"/><text font-family="sans-serif" font-size="40" x="98.4" y="164.6">O</text></svg>

<?xml version='1.0' encoding='iso-8859-1'?>
<svg version='1.1' baseProfile='full'
              xmlns='http://www.w3.org/2000/svg'
                      xmlns:rdkit='http://www.rdkit.org/xml'
                      xmlns:xlink='http://www.w3.org/1999/xlink'
                  xml:space='preserve'
width='256px' height='256px' viewBox='0 0 256 256'>
<!-- END OF HEADER -->
<rect style='opacity:1.0;fill:#FFFFFF;stroke:none' width='256.0' height='256.0' x='0.0' y='0.0'> </rect>
<ellipse cx='37.9' cy='186.4' rx='25.1' ry='25.1' class='atom-0'  style='fill:#FF7F7F;fill-rule:evenodd;stroke:#FF7F7F;stroke-width:1.0px;stroke-linecap:butt;stroke-linejoin:miter;stroke-opacity:1' />
<path class='bond-0 atom-1 atom-2' d='M 125.1,151.2 L 186.8,178.7' style='fill:none;fill-rule:evenodd;stroke:#000000;stroke-width:2.0px;stroke-linecap:butt;stroke-linejoin:miter;stroke-opacity:1' />
<path class='bond-1 atom-2 atom-3' d='M 186.8,178.7 L 242.8,116.6' style='fill:none;fill-rule:evenodd;stroke:#000000;stroke-width:2.0px;stroke-linecap:butt;stroke-linejoin:miter;stroke-opacity:1' />
<path class='bond-2 atom-3 atom-4' d='M 242.8,116.6 L 201.1,44.1' style='fill:none;fill-rule:evenodd;stroke:#000000;stroke-width:2.0px;stroke-linecap:butt;stroke-linejoin:miter;stroke-opacity:1' />
<path class='bond-3 atom-4 atom-5' d='M 201.1,44.1 L 119.2,61.4' style='fill:none;fill-rule:evenodd;stroke:#000000;stroke-width:2.0px;stroke-linecap:butt;stroke-linejoin:miter;stroke-opacity:1' />
<path class='bond-4 atom-5 atom-1' d='M 119.2,61.4 L 112.0,129.9' style='fill:none;fill-rule:evenodd;stroke:#000000;stroke-width:2.0px;stroke-linecap:butt;stroke-linejoin:miter;stroke-opacity:1' />
<path class='bond-5 atom-1 atom-0' d='M 95.6,153.1 L 52.7,177.9' style='fill:none;fill-rule:evenodd;stroke:#000000;stroke-width:2.0px;stroke-linecap:butt;stroke-linejoin:miter;stroke-opacity:1' />
<path d='M 183.7,177.3 L 186.8,178.7 L 189.6,175.6' style='fill:none;stroke:#000000;stroke-width:2.0px;stroke-linecap:butt;stroke-linejoin:miter;stroke-miterlimit:10;stroke-opacity:1;' />
<path d='M 240.0,119.7 L 242.8,116.6 L 240.7,113.0' style='fill:none;stroke:#000000;stroke-width:2.0px;stroke-linecap:butt;stroke-linejoin:miter;stroke-miterlimit:10;stroke-opacity:1;' />
<path d='M 203.1,47.8 L 201.1,44.1 L 197.0,45.0' style='fill:none;stroke:#000000;stroke-width:2.0px;stroke-linecap:butt;stroke-linejoin:miter;stroke-miterlimit:10;stroke-opacity:1;' />
<path d='M 123.3,60.6 L 119.2,61.4 L 118.9,64.9' style='fill:none;stroke:#000000;stroke-width:2.0px;stroke-linecap:butt;stroke-linejoin:miter;stroke-miterlimit:10;stroke-opacity:1;' />
<text x='25.9' y='206.4' class='atom-0' style='font-size:40px;font-style:normal;font-weight:normal;fill-opacity:1;stroke:none;font-family:sans-serif;text-anchor:start;fill:#000000' ></text>
<text x='98.4' y='164.6' class='atom-1' style='font-size:40px;font-style:normal;font-weight:normal;fill-opacity:1;stroke:none;font-family:sans-serif;text-anchor:start;fill:#000000' >O</text>
</svg>
